X: 91
T: Miss Ann Stewart
R:Reel
S:MacDonald - The Skye Collection
N:pg.147
M:C
L:1/8
K:G Minor
A|DGG>A Bcdf|AFcA FGAc|BAGA Bcdf|AFc>A BGG:|
A|Bcde fdcB|AFcF dFcF|Bcde fdcB|AFc>A BGGA|Bfdf BfdB|
FcAc FcAF|Bfdf BfdB|FAc>A BGG||


